X: 143
T: Cantantibus organis – Largo
C: Franciszek Walczyński
%%abc-version 2.0
%%abcx-abcm2ps-target-version 5.9.1 (29 Sep 2008)
%%abc-creator hum2abc beta
%%abcx-conversion-date 2021/10/04 07:38:40
%%abc-edited-by Antoni Szymański
%%abc-edited-by Anastazja Marusiak
%%abcx-initial-encoding-date 2021-07-28
%%humdrum-veritas 2174329174
%%humdrum-veritas-data 1200629352
%%linebreak <none>
%%barnumbers 0
L: 1/8
M: 2/4
N: Derived from pl-kozmzk--mzk-m-346--045_walczynski-franciszek--cantantibus-organis-largo.krn
%%staves {1 2}
V: 1 clef=treble
V: 2 clef=bass
K: Bb
[V:1] z4 & z4 | 
[V:2] z4 & G,D,G,A,/B,/ | 
[V:1] z4 & z4 | 
[V:2] z4 & !accent!G,2!accent!F,2 | 
[V:1] z4 & z4 | 
[V:2] CG,CD/E/ & E,3D, | 
[V:1] z4 & z4 | 
[V:2] !accent!C2!accent!B,2 & C,2D,2 | 
[V:1] z4 & z4 | 
[V:2] A,B,A,G, & ^C,4 | 
[V:1] z4 & z4 | 
[V:2] ^F,4 & D,E,D,=C, | 
[V:1] z4 & GDGA/B/ | 
[V:2] G,3^F, & B,,3D,/C,/ | 
[V:1] z4 & !accent!G2!accent!F2 | 
[V:2] G,4 & =B,,G,,A,,B,, | 
[V:1] cGcd/e/ & E4- | 
[V:2] G,4- & C,4- | 
[V:1] !accent!c2!accent!B2 & E2G2 | 
[V:2] G,2=E2 & C,2^C,2 | 
[V:1] dBAG & BG^FD- | 
[V:2] E2CB, & D,4 | 
[V:1] ^F4 & DEDC | 
[V:2] A,4 & D,,4 | 
[V:1] G4- & B,3C/D/ | 
[V:2] G,D,G,A,/B,/ & G,,4- | 
[V:1] G4 & B,CB,2 | 
[V:2] G,E,D,2 & G,,4 | 
[V:1] z4 & z4 | 
[V:2] z4 & G,,D,,G,,A,,/B,,/ | 
[V:1] z4 & z4 | 
[V:2] z4 & !accent!G,,2!accent!F,,2 | 
[V:1] !accent!C2!accent!B,2 | 
[V:2] G,4- & [E,,2E,2][G,,2D,2] | 
[V:1] !accent!E2!fermata!D2 |]  
[V:2] G,A,=B,2 & [C,,2E,2]!fermata![G,,2G,2] |]  


